X:1
T:Pisgah, CM
T:Pisgah, CM
T:Joseph C. Lowry, 1817
T:Public Domain Courtesy of the Cyber Hymnal™
C:Joseph C. Lowry, 1817
Z:Public Domain
Z:Courtesy of the Cyber Hymnal™
%%score ( 1 2 ) ( 3 4 )
L:1/8
Q:1/4=113
M:4/4
K:G
V:1 treble 
V:2 treble 
V:3 bass 
V:4 bass 
V:1
 D2 | [DG]2 [DG]2 (GA) (BG) | [CE]2 [CE]2 (ED) (B,D) | [B,G]2 [EG]2 (BA) (GB) | [DA]6 (Bc) | %5
 [Gd]2 [Fd]2 [Gd]2 (ed) | [EB]2 [FB]2 [EA]2 ([DG][FA]) | [GB]2 ([EA][DG]) D2 [DF]2 | [DG]6 |] %9
V:2
 D2 | x4 E2 D2 | x8 | x4 D2 D2 | x6 F2 | x6 A2 | x8 | x4 D2 x2 | x6 |] %9
V:3
 D,2 | [G,B,]2 [F,B,]2 [E,B,]2 [B,,G,]2 | [C,G,]2 [E,G,]2 [G,B,]2 [F,A,]2 | %3
 [E,G,]2 [C,C]2 G,2 [B,,G,]2 | [D,F,]6 D2 | [B,D]2 [A,C]2 [G,B,]2 [F,A,]2 | %6
 [E,G,]2 [D,F,]2 [C,A,]2 ([B,,G,][A,,C]) | [G,,D]2 ([A,,C][B,,B,]) [D,B,]2 [D,A,]2 | [G,B,]6 |] %9
V:4
 D,2 | x8 | x8 | x4 G,2 x2 | x6 (DC) | x8 | x8 | x8 | x6 |] %9

